assets/awscloudwatcheventtimebased/original.svg

<svg height="48" viewBox="0 0 48 48" width="48" xmlns="http://www.w3.org/2000/svg"><path d="m39.07 11.905h-5.388v-2h3.387v-4.265h2zm-1-7.905a6.044 6.044 0 0 1 6.036 6.038 6.044 6.044 0 0 1 -6.037 6.038 6.045 6.045 0 0 1 -6.038-6.038 6.045 6.045 0 0 1 6.039-6.038m0 14.076c4.431 0 8.036-3.606 8.036-8.038s-3.605-8.038-8.036-8.038-8.038 3.605-8.038 8.038 3.605 8.038 8.038 8.038m3.397 22.633h-6.797v-19.554c2.187.66 4.61.66 6.797 0zm.59-21.907a9.83 9.83 0 0 1 -7.977 0 .998.998 0 0 0 -1.41.913v21.995a1 1 0 0 0 1 1h8.797a1 1 0 0 0 1-1v-21.995a.998.998 0 0 0 -1.41-.913m-40.057 27.425h43.986v-2h-43.986zm18.594-5.518h6.797v-12.956h-6.797zm-1 2h8.797a1 1 0 0 0 1-1v-14.956a1 1 0 0 0 -1-1h-8.797a1 1 0 0 0 -1 1v14.957a1 1 0 0 0 1 1m-13.076-2h6.798v-17.357h-6.798zm-1 2h8.798a1 1 0 0 0 1-1v-19.356a1 1 0 0 0 -1-1h-8.798a1 1 0 0 0 -1 1v19.356a1 1 0 0 0 1 1" fill="#e7157b" fill-rule="evenodd"/></svg>

<svg xmlns="http://www.w3.org/2000/svg" width="48" height="48" viewBox="0 0 48 48"><path fill="#e7157b" fill-rule="evenodd" d="M39.07 11.905h-5.388v-2h3.387V5.64h2zM38.07 4a6.044 6.044 0 0 1 6.036 6.038 6.044 6.044 0 0 1-6.037 6.038 6.045 6.045 0 0 1-6.038-6.038A6.045 6.045 0 0 1 38.07 4m0 14.076c4.431 0 8.036-3.606 8.036-8.038S42.501 2 38.07 2s-8.038 3.605-8.038 8.038 3.605 8.038 8.038 8.038m3.397 22.633H34.67V21.155c2.187.66 4.61.66 6.797 0zm.59-21.907a9.83 9.83 0 0 1-7.977 0 .998.998 0 0 0-1.41.913V41.71a1 1 0 0 0 1 1h8.797a1 1 0 0 0 1-1V19.715a.998.998 0 0 0-1.41-.913M2 46.227h43.986v-2H2zm18.594-5.518h6.797V27.753h-6.797zm-1 2h8.797a1 1 0 0 0 1-1V26.753a1 1 0 0 0-1-1h-8.797a1 1 0 0 0-1 1V41.71a1 1 0 0 0 1 1m-13.076-2h6.798V23.353H6.518zm-1 2h8.798a1 1 0 0 0 1-1V22.354a1 1 0 0 0-1-1H5.518a1 1 0 0 0-1 1V41.71a1 1 0 0 0 1 1"/></svg>
